X:1
T:L’Esclave
T:L’Esclave
T:The Captive
T:Edouard Lalo (1823–1892)
T:Théophile Gautier (1811–1872)
T:by  Mutopia-2006/12/18-587 - public domain
T:by  Mutopia-2006/12/18-587 - public domain
T:by  Mutopia-2006/12/18-587 - public domain
C:Edouard Lalo (1823–1892)
Z:Théophile Gautier (1811–1872)
Z:by  Mutopia-2006/12/18-587 - public domain
%%score 1 { ( 2 3 ) | ( 4 5 ) }
L:1/8
Q:1/4=78
M:9/8
K:D
V:1 treble nm="Soprano"
V:2 treble nm="Piano"
V:3 treble 
V:4 treble 
V:5 treble 
V:1
"^Andante non troppo.\n" z9 | z9 | z9 | z3 z3 z2!p! A | (A2 =F) E3- E A _B | A A =F E3 E z E | %6
w: |||Cap\-|ti * ve * et peut\-|être ou\- bli\- é e, je|
 =F3- F F F!pp! F F G | (A3 G3- G) z G | G2!pp! =c c6- | c2 z!pp! _B3 B2 B | (_B3 A6- | %11
w: songe * à mes jeu nes a\-|mours, * * à|mes beaux jours!|* À mes beaux|jours! *|
 A2) z z3 z3 | z2!p! =B"^cresc." ^c d e ^f e d |!mf! d6!>(! d3 |!p! d2!>)! =B A3 A2"^cresc." A | %15
w: |Et par la fe\- nê\- tre gril\-|lé\- e|je re\- gar\- de l’oi\-|
 d2 B A2 A A2 f | f3- f z2 !fermata!z3 | z9 | z3 z3 z2!p! A |"^a tempo" A2 =F"^sans repirer" E6 | %20
w: seau joy\- eux fen\- dant les|cieux. *||Au\-|près de lui,|
 A A =F E3 E3 | =F2 F F3- F F G | A2 A G3- G z3/2 G/ |"^cresc." G2 =c c6- |!f! c3- c z!f! _B B2 B | %25
w: belle Es\- pé\- ran\- ce,|por\- te moi * sur tes|ai\- les d’or, * s’il|m’aime en\- cor!|* * S’il m’aime en\-|
 (_B3 A6- | A) z2 z3 z3 | z2!p! =B"^poco cresc." ^c d e ^f e d | d6 d z3/2!p! d/ | %29
w: cor! *||Et pour en dor\- mir ma souf\-|fran\- ce, sus\-|
 d2 B A3-"^dim." A2 A | d2 B A6- | A z2!pp! A3 A2 A | !fermata!A6 z3 |] %33
w: pends mon â\- * me|sur son cœur|* comme u\- ne|fleur!|
V:2
!mf! (a3 _b3 e'3 |"_dim." a3 _b3 e'3) |!p! a3 (4:6:4(g=fed) | d3 !fermata!c6 | %4
 [D=FA][DFA][DFA] [CGA][CGA][CGA] [CGA][CGA][CGA] | %5
 [D=FA][DFA][DFA] [CGA][CGA][CGA] [CGA][CGA][CGA] | %6
 [=FA][FA][FA] [FA][FA][FA]!pp! [_B=f_b][Bfb][Bfb] | %7
 [A=fa][Afa][Afa] [=ceg][ceg][ceg] [=Beg][Beg][Beg] | %8
 [=cg=c'][cgc'][cgc'] [cgc'][cgc'][cgc'] [c=fc'][cfc'][cfc'] | %9
!pp! [=F_Bd=f][FBdf][FBdf] [EBde][EBde][EBde] [EBde][EBde][EBde] | %10
 [G_B^ce][GBce][GBce] [GAce][GAce][GAce] [GAce][GAce][GAce] | ([^Fd]2 [G=B] [GA]6) | %12
 ([Fd]2 [GB]"_cresc." [GA]3) [F=cd][Gcde][Acdf] | %13
!mf! [=cda][cda][cda] [Bdg][Bdg][Bdg]!>(! [_Bde][Bde][Bde]!>)! |!pp! ([fd']2 [g=b] [ga]6) | %15
"_cresc." ([Fd]2 [GB] [GA]3) !^![ca]2 a | !^![dad']3!f! [af'a']3!p! !fermata![fa]3 | %17
!p! (a3 _b3"_dim." e'3) | (a3 _b3 e'3) |!p! [d=fa][dfa][dfa] [cga][cga][cga] [cga][cga][cga] | %20
 [d=fa][dfa][dfa] [cga][cga][cga] [cga][cga][cga] | %21
 [d=fa][dfa][dfa] [dfa][dfa][dfa]!pp! [_Bf_b][Bfb][Bfb] | %22
 [A=fa][Afa][Afa]!<(! [=ceg][ceg][ceg] [=Beg][Beg][Beg]!<)! | %23
"_cresc." [=cg=c'][cgc'][cgc'] [cgc'][cgc'][cgc'] [c=fc'][cfc'][cfc'] | %24
 [=F_Bd=f][FBdf][FBdf] [EBde][EBde][EBde] [EBde][EBde][EBde] | %25
 !^![G_B^ce][GBce][GBce] [GAce][GAce][GAce] [GAce][GAce][GAce] | (!^![Fd]2 [GB]"_dim." [GA]6) | %27
!p! ([Fd]2 [GB]"_poco cresc." [GA]3) [F=cd][Gcde][Acdf] | %28
!>(! [=cda][cda][cda] [Bdg][Bdg][Bdg] [_Bde][Bde][Bde]!>)! |!pp! ([fd']2 [g=b] [ga]6) | %30
 ([Fd]2 [GB] [GA]6) |!ppp! [GAe]6- [GAe]2 z |!ppp! [Afa]3 !fermata![FA]6 |] %33
V:3
 =f3 g6 | =f3 g6 | A3 _B3 =B3 | !fermata![Ag]6- [Ag]3 | z9 | x9 | x9 | x9 | x9 | x9 | x9 | x9 | %12
 x9 | x9 | x9 | x9 | x9 | =f3 g6 | =f3 g6 | z9 | x9 | x9 | x9 | x9 | x9 | x9 | x9 | x9 | x9 | x9 | %30
 x9 | x9 | x9 |] %33
V:4
 A6- A3 | A8- A |[K:bass] [=F,D]3 [G,E]3 [^G,=F]3 | =F3 !fermata!E6 | [D,A,]6- [D,A,]3 | %5
 [D,A,]6- [D,A,]3 |[K:treble] D6 [D=F]3 | [=C=F]3 [CG]6 | (_B3 A6) |[K:bass] [=C,G,=C]6 [=C,,C,]3 | %10
 [A,,,A,,]6- [A,,,A,,]3 | z2 (D ^C6) | z2 (D C3) D,3 | G,,6 G,,3 |[K:treble] z2 (d c6) | %15
 z2 (D C3) [GA]2 z |[K:bass] !arpeggio![D,A,F][K:treble] Ad- d3- d2 z | AAA (A2 ^A =A3) | %18
 AAA"^rit." (A2 ^A =A3) | [DA]6- [DA]3 | [DA]6- [DA]3 | [DA]6 [D=F]3 | [=C=F]3 [CG]6 | (^A3 =A6) | %24
[K:bass] [=C,G,=C]6 [=C,,C,]3 | !^![A,,,A,,]6- [A,,,A,,]3 | z2 (D ^C6) | z2 (D C3) D,3 | %28
 G,,6- G,,3 |[K:treble] z2 (d c6) |[K:bass] z2 (D C6) | z9 | [D,A,]6- !fermata![D,A,]3 |] %33
V:5
 (D3 C6) | (D3 C6) |[K:bass] x9 | !fermata!A,6- A,3 | x9 | x9 |[K:treble] x9 | x9 | =C6- C3 | %9
[K:bass] x9 | x9 | A,A,A, A,A,A, A,A,A, | A,A,A, A,A,A, x3 | x9 |[K:treble] AAA AAA AAA | %15
 A,A,A, A,A,A, x3 |[K:bass] x[K:treble] x8 | (D3 C6) | (D3 C6) | x9 | x9 | x9 | x9 | =C6- C3 | %24
[K:bass] x9 | x9 | A,A,A, A,A,A, A,A,A, | A,A,A, A,A,A, x3 | x9 |[K:treble] AAA AAA AAA | %30
[K:bass] A,A,A, A,A,A, A,A,A, | x9 | x9 |] %33

